X:1
T:'Tis So Sweet to Trust in Jesus
T:Text: Louisa M. R. Stead (1850-1917) Tune: William J. Kirkpatrick (1838-1921)
T:87 87 Refrain TRUST IN JESUS www.hymnary.org/text/tis_so_sweet_to_trust_in_jesus_just_to
T:'Tis So Sweet to Trust in Jesus
T:This hymn is in the public domain.  You may freely use this score for personal and congregational worship.  If you reproduce the score, please credit Hymnary.org as the source. 
T:This hymn is in the public domain.  You may freely use this score for personal and congregational worship.  If you reproduce the score, please credit Hymnary.org as the source. 
Z:This hymn is in the public domain.  You may freely use this score for personal and congregational worship.  If you reproduce the score, please credit Hymnary.org as the source.
%%score 1 ( 2 3 )
L:1/8
M:4/4
K:G
V:1 treble nm="Piano" snm="Pno."
V:2 bass nm="Piano" snm="Pno."
V:3 bass 
V:1
 [DB]2 [CA]2 [B,G]3 [DF] | [CE]2 [CG]2 [CE]2 [B,D]2 | [DG]2 [GB]2 [Gd]3 [GB] | [DA]2 [^CG]2 [DA]4 | %4
w: 3~Yes, 'tis sweet to|trust in Je- sus,|just from sin and|self to cease,|
w: 1~'Tis so sweet to|trust in Je- sus,|just to take him|at his word,|
w: 2~O how sweet to|trust in Je- sus,|just to trust his|clean- sing blood,|
 [DB]2 [CA]2 [B,G]3 [DF] | [CE]2 [CG]2 [CE]2 [B,D]2 | [B,G]2 [DB]2 [CE]3 [EA] | %7
w: just from Je- sus|sim- ply ta- king|life and rest, and|
w: just to rest up-|on his pro- mise,|just to know, "Thus|
w: just in sim- ple|faith to plunge me|'neath the heal- ing,|
 [DG]2 [DF]2 [DG]4 ||"^Refrain" [GB]2 [Gd]2 [Gd]2 [GB]2 | [FA]2 [EG]2 [GB]2 [FA]2 | %10
w: joy and peace.|Je- sus, Je- sus,|how I trust him!|
w: saith the Lord."|||
w: clean- sing flood!|||
 [GB]2 [Gd]2 [Gd]3 [GB] | [DA]2 [^CG]2 [DA]4 | [DB]2 [CA]2 [B,G]2 [B,D]2 | %13
w: How I've proved him|o'er and o'er!|Je- sus, Je- sus,|
w: |||
w: |||
 [Ec]3 [CE] [CE]2 [B,D]2 | [B,G]2 [DB]2 [CE]3 [EA] | [DG]2 [DF]2 [DG]4 |] %16
w: pre- cious Je- sus!|O for grace to|trust him more!|
w: |||
w: |||
V:2
 [G,,G,]2 [G,,D,]2 [G,,D,]3 [B,,G,] | [C,G,]2 [E,G,]2 G,2 G,2 | [G,B,]2 [G,D]2 [G,B,]3 [G,D] | %3
 [F,D]2 [E,A,]2 [D,F,]4 | [G,,G,]2 [G,,D,]2 [G,,D,]3 [B,,G,] | [C,G,]2 [E,G,]2 G,2 G,2 | %6
 [G,,D,]2 [G,,G,]2 [C,G,]3 [C,C] | [D,B,]2 [D,A,]2 [G,,B,]4 || [G,D]2 [G,B,]2 [G,B,]2 [G,D]2 | %9
 [D,C]2 [E,B,]2 [D,D]2 [D,D]2 | [G,D]2 [G,B,]2 [G,B,]3 [G,D] | [F,D]2 [E,A,]2 [D,F,]4 | %12
 [G,,G,]2 [G,,D,]2 [G,,D,]2 [G,,G,]2 | [C,G,]3 [C,G,] [G,,G,]2 [G,,G,]2 | %14
 [G,,D,]2 [G,,G,]2 [C,G,]3 [C,C] | [D,B,]2 [D,A,]2 [G,,G,B,]4 |] %16
V:3
 x8 | x4 G,2 G,2 | x8 | x8 | x8 | x4 G,2 G,2 | x8 | x8 || x8 | x8 | x8 | x8 | x8 | x8 | x8 | x8 |] %16

